X:1
T:Title
%%score { ( 1 3 ) | 2 }
L:1/8
M:4/4
K:Ab
V:1 treble nm="Grand Piano"
V:3 treble 
V:2 treble 
V:1
 z4 z2[Q:1/4=100] Ac | e2 e>c B .A3 | [FA][FB] [FA]>[DF] [FA]2 [FB][Fc] | %3
 [Fd]2 [Fd][Fd] [Fc] .[FB]3 | [FB]F[=DG][DA] G2 FE | [Cc]2 [DB]>[Ec] [DB] .[CA]3 | %6
 AABc [Fd]2 [Fc][FB] | [Ee]2 [Ed][Ec] [FB][Fd][EFc][DFB] |[M:7/8] [CEA]2 [B,DG]2 [A,CA]3 | %9
[M:1/4] ef |[M:4/4] e2 A2 z4 | e-[Ge] z D [CA]2 [Ec][Ed] | [Ee]2 [Ed][Ec] [FB][Fd][EFc][DFB] | %13
[M:3/4] [Ge]2 [DEG]2 [CEA]2 |] %14
V:2
 z4 z2 [A,CE][A,EA] | [A,CA]2 [A,CA]>[A,EA] [A,DG][K:bass] .[A,C]3 | %2
 [D,D][D,D] [D,D]>[D,A,] [D,D]2 [D,B,][C,=A,] | [B,,B,]2 [B,,B,][B,,B,] [C,=A,] .[D,B,]3 | %4
 [=D,B,][D,B,][B,,B,][B,,B,] [E,B,D]2 [E,A,D][E,G,D] | [A,,A,]2 [A,,A,]>[A,,A,] [A,,A,] .[A,,A,]3 | %6
 [A,CE][A,C][A,DG][A,E_G][K:bass] [D,D]2 [D,D][D,D] | [C,A,]2 [C,A,][C,A,] [D,D][D,B,]D,D, | %8
[M:7/8] E,2 E,2 A,,3 |[M:1/4] z2 |[M:4/4][K:treble] [A,CA][A,C][K:bass][A,CE][A,C] [E,B,D]2 z2 | %11
 [E,D][E,D][E,B,D][E,B,] [A,,A,]2 [A,,A,][B,,G,] | [C,A,]2 [C,A,][C,A,] [D,D][D,B,]D,D, | %13
[M:3/4] [E,B,]2 E,2 A,,2 |] %14
V:3
 x8 | x8 | x8 | x8 | x8 | x8 | x8 | x8 |[M:7/8] x7 |[M:1/4] x2 |[M:4/4] z A z E G2 ef | .G2 G2 z4 | %12
 x8 |[M:3/4] x6 |] %14

